X:1
T: The Humors of Castle Comer
C:
R:Jig
Q:180
K:Em
M:6/8
L:1/16
GF|E2F2E2 E2F2A2|B2c2A2 B4c2|d2e2d2 d2c2B2|A2B2A2 F2E2D2|E2F2E2 E2F2A2|B2c2B2 B4c2|d2c2B2 A2F2D2|E6 E4GF|
E2F2E2 E2F2A2|B2c2A2 B4c2|d2e2d2 d2c2B2|A2B2A2 F2E2D2|E2F2E2 E2F2A2|B2c2B2 B4c2|d2c2B2 A2F2D2|E6E4e2|
e2B2e2 e2B2e2|e2f2g2 f4e2|d2e2d2 d2c2B2|A2B2A2 F2E2D2|e2B2e2 e2B2e2|e2f2g2 f4e2|d2c2B2 A2F2D2|E6E4e2|
e2B2e2 e2B2e2|e2f2g2 f4e2|d2e2d2 d2c2B2|A2B2A2 F2E2D2|e2B2e2 e2B2e2|e2f2g2 f4e2|d2c2B2 A2F2D2|E6E4||
